resources/dark/share.svg

<svg fill="none" height="16" viewBox="0 0 16 16" width="16" xmlns="http://www.w3.org/2000/svg"><g fill="#42a5f5"><path d="m2.75 8 9.75-5.25v1.84001l-6.5 3.40999 6.5 3.41v1.84z"/><path d="m14 4.25c0 1.24264-1.0074 2.25-2.25 2.25s-2.25-1.00736-2.25-2.25 1.0074-2.25 2.25-2.25 2.25 1.00736 2.25 2.25z"/><path d="m6.5 8c0 1.24264-1.00736 2.25-2.25 2.25s-2.25-1.00736-2.25-2.25 1.00736-2.25 2.25-2.25 2.25 1.00736 2.25 2.25z"/><path d="m14 11.75c0 1.2426-1.0074 2.25-2.25 2.25s-2.25-1.0074-2.25-2.25 1.0074-2.25 2.25-2.25 2.25 1.0074 2.25 2.25z"/></g></svg>

<svg width="16" height="16" viewBox="0 0 16 16" fill="none" xmlns="http://www.w3.org/2000/svg">
<path d="M2.75 8L12.5 2.75V4.59001L6 8L12.5 11.41V13.25L2.75 8Z" fill="#42A5F5"/>
<path d="M14 4.25C14 5.49264 12.9926 6.5 11.75 6.5C10.5074 6.5 9.5 5.49264 9.5 4.25C9.5 3.00736 10.5074 2 11.75 2C12.9926 2 14 3.00736 14 4.25Z" fill="#42A5F5"/>
<path d="M6.5 8C6.5 9.24264 5.49264 10.25 4.25 10.25C3.00736 10.25 2 9.24264 2 8C2 6.75736 3.00736 5.75 4.25 5.75C5.49264 5.75 6.5 6.75736 6.5 8Z" fill="#42A5F5"/>
<path d="M14 11.75C14 12.9926 12.9926 14 11.75 14C10.5074 14 9.5 12.9926 9.5 11.75C9.5 10.5074 10.5074 9.5 11.75 9.5C12.9926 9.5 14 10.5074 14 11.75Z" fill="#42A5F5"/>
</svg>
